X:1
T:James Gibb editions
T:O peaceful night - German
T:#
%%score [ ( 1 2 ) 3 4 5 ]
L:1/8
Q:1/4=96
M:3/4
K:F
V:1 treble nm="S" snm="S"
V:2 treble 
V:3 treble nm="A" snm="A"
V:4 treble-8 nm="T" snm="T"
V:5 bass nm="B" snm="B"
V:1
"^andantino (not too slow)""^O peaceful night""^Edward German\n(1862-1936)""^W. Herbert Scott"!pp! A2 | %1
w: O|
 AA A3 A | AA A2 A2 | A3 A cB | AG G2 A2 |[M:3/4] BF A2 A2 |!<(! GD FG A!<)!=B | cA ^G2 =B2 | %8
w: peace- ful night! so|calm and still! The|moon- light sleeps on|vale and hill; And|soft the brook- let|hur- ries by With murm- 'rous|flow of lul- la-|
!>(! A6-!>)! | A2"^animato"!f! !>!A4 | !>!=B3 G (!>!c2- | c2 =B2) A2 | G4 F2 | E3"^dim." G GG | %14
w: by:|* Till|life a- wakes|* * a-|down the|dale Sweet mu- sic|
 GF!>(! E2 D2 | (F2!>)! E4- | E2) z2 z2 | z2 z2!p! G2- | %18
w: of the nigh- tin-|gale. *||Stay|
"^rall."[Q:1/4=93]!>(! G2[Q:1/4=89] F2[Q:1/4=85] A2!>)! | %19
w: * with us,|
[Q:1/4=84] G4!pp!"^a tempo""^tranquillo"[Q:1/4=96] C2 | BA B2!<(! G2 | c=B!<)! c2 !>!c2- | %22
w: stay! O|peace- ful night! O|dream of day! Stay|
"^cresc." c2 !courtesy!_B2 A2 |!f!!f! (d6- |!>(! d2 B2)!>)!!p! G2 | (B6 | %26
w: * with us,|stay!|* * O|stay,|
 A4)!pp!"^rall."[Q:1/4=94] F2 |[Q:1/4=90]!>(! A2[Q:1/4=85] G4!>)! |[Q:1/4=82] !fermata!F6 || %29
w: * O|with us|stay!|
!pp![Q:1/4=96] A2 | AA A3 A | AA A2 A2 |!<(! A3 A!<)! cB |!>(! AG!>)! G4 | %34
w: O|mys- tic night! in|wood- land shade, Thou|know'st a fai- ry-|haunt- ed glade.|
!p!"^cresc.""^molto" ^G6 | %35
w: Where|
"^allegro staccato"[Q:1/4=120] .A/ z/ .^G/ z/ .A/ z/!>(! .G/ z/ .A/ z/ .G/ z/!>)! | %36
w: laugh- ing elves, with ti- ny|
 .A/ z/!p! .e/ z/ .e/ z/ .e/ z/ .e/ z/ .e/ z/ | %37
w: feet, Go trip- ping through the|
[Q:1/4=120][Q:1/4=120][Q:1/4=120][Q:1/4=120] .e/ z/ .e/ z/!pp! e4- | e6 | %39
w: mea- dow sweet:||
 .e/ z/ z!f![Q:1/4=96] !>!A4 |[Q:1/4=96][Q:1/4=96][Q:1/4=96][Q:1/4=96] !>!=B3 G (!>!c2- | %41
w: * Till|in the si\-|
 c2 =B2) A2 |!>(! G4 F2!>)! | E3!p! G GG | GF E2 D2 | (F2 E4- | E2) z2 z2 | z2 z2!p! G2- | %48
w: * * lent|sky a-|far A- gain shines|forth the morn- ing|star. *||Stay|
"^rall."[Q:1/4=93]!>(! G2[Q:1/4=88] F2[Q:1/4=84] A2!>)! |[Q:1/4=82] G4!pp![Q:1/4=96] C2 | %50
w: * with us,|stay O|
"^a tempo" BA B2 G2 |!<(! c=B!<)! c2 !>!c2- |"^cresc." c2 !courtesy!_B2 A2 |!f! (d6- | %54
w: peace- ful night! O|dream of day! Stay|* with us,|stay!|
!>(! d2 B2)!>)!!p! G2 | (B6 | A4)!pp! F2 |!pp! x6 | x6 | x2[Q:1/4=92] F4 | %60
w: * * O|stay,|* O|||Stay|
[Q:1/4=86] c4[Q:1/4=81] c2 |[Q:1/4=80] !fermata!c6 || %62
w: with us,|stay!|
V:2
 x2 | x6 | x6 | x6 | x6 |[M:3/4] x6 | x6 | x6 | x6 | x6 | x6 | x6 | x6 | x6 | x6 | x6 | x6 | x6 | %18
w: ||||||||||||||||||
 x6 | x6 | x6 | x6 | x6 | x6 | x6 | x6 | x6 | x6 | x6 || x2 | x6 | x6 | x6 | x6 | x6 | x6 | x6 | %37
w: |||||||||||||||||||
 x6 | x6 | x6 | x6 | x6 | x6 | x6 | x6 | x6 | x6 | x6 | x6 | x6 | x6 | x6 | x6 | x6 | x6 | x6 | %56
w: |||||||||||||||||||
 x6 | A2 G4 | F3!ppp! G GG | A z F4- | F2 (ED) E2 | F6 || %62
w: |with us|stay! O peace- ful|night! Stay|* with * us,|stay!|
V:3
!pp! C2 | CC C3 C | ^CC C2 C2 | D3 D DD | FE E2 _E2 |[M:3/4] DD F2 F2 | %6
w: O|peace- ful night! so|calm and still! The|moon- light sleeps on|vale and hill; And|soft the brook- let|
!<(! DD D!courtesy!=E F!<)!F | EE E2 E2 |!>(! (E2 FEDF!>)! | E2) z2!f! !>!E2 | !>!G4 G2 | %11
w: hur- ries by With murm- 'rous|flow of lul- la-|by: * * * *|* Till|life a-|
 (A2 G2) F2 | (E2 D2) D2 | C3"^dim." C CC | CC!>(! C2 =B,2 | (D2!>)! C4- | C2) z2 z2 | %17
w: wakes * a-|down * the|dale Sweet mu- sic|of the nigh- tin-|gale. *||
 z2 z2!p! C2- |"^rall."!>(!!>(! C6!>)!!>)! | C4"^a tempo"!pp! C2 | E^D E2!<(! E2 | %21
w: Stay!||* O|peace- ful night! O|
 FF!<)! F2 (!>!G2 |"^cresc." ^F4) F2 |!f! (G^FAGBA |!>(! G4) z2!>)! | z2!p! D2 E2 | %26
w: dream of day! Stay,|* O|stay! * * * * *||peace- ful|
 F4!pp!"^rall." F2 |!>(! F2 (F2 E2)!>)! | !fermata!C6 ||!pp! C2 | CC C3 C | ^CC C2 C2 | %32
w: night, O|with us *|stay!|O|mys- tic night! in|wood- land shade, Thou|
!<(! D3 D!<)! DD |!>(! FE!>)! E4 |!p!"^cresc.""^molto" E6 | %35
w: know'st a fai- ry-|haunt- ed glade.|Where|
 .E/ z/ .E/ z/ .E/ z/!>(! .E/ z/ .E/ z/ .E/ z/!>)! | .E/ z/!p! .E/ z/ .E/ z/ .E/ z/ .E/ z/ .E/ z/ | %37
w: laugh- ing elves, with ti- ny|feet, Go trip- ping through the|
 .E/ z/ .E/ z/ .E/ z/!pp! .E/ z/ .E/ z/ .E/ z/ | .E/ z/ .E/ z/ .E/ z/ z .E/ z/ z | %39
w: mea- dow sweet, go trip- ping|through the mea- dow|
 .E/ z/ z z2!f! !>!E2 | !>!G4 G2 | (A2 G2) F2 |!>(! (E2 D2) D2!>)! | C3!p! C CC | CC C2 =B,2 | %45
w: sweet: Till|in the|si- * lent|sky * a-|far A- gain shines|forth the morn- ing|
 (D2 C4- | C2) z2 z2 | z2 z2!p! C2- |"^rall."!>(! C6!>)! | C4!pp! C2 |"^a tempo" E^D E2 E2 | %51
w: star. *||Stay!||* O|peace- ful night! O|
!<(! FF F2!<)! (!>!G2 |"^cresc." ^F4 F2 |!f! (G^FAGBA |!>(! G4) z2!>)! | z2!p! D2 E2 | F4!pp! F2 | %57
w: dream of day! Stay,|* O|stay! * * * * *||peace- ful|night! O|
 F2 F2 E2) | F3!ppp! F FF | F z"^rall." (D2 C2) | B,4 C2 | !fermata!C6 || %62
w: with us *|stay! O peace- ful|night! Stay *|with us,|stay!|
V:4
!pp! A2 | AA A3 A | GG G2 G2 | F3 F ^FG | cc c2 c2 |[M:3/4][K:treble-8] BB c2 c2 | %6
w: O|peace- ful night! so|calm and still! The|moon- light sleeps on|vale and hill; And|soft the brook- let|
!<(! BB A2!<)! A2 | Ac =B2 d2 |!>(! (c2 dc=Bd!>)! | c2) z2!f! !>!c2 | !>!d4 c2 | c4 c2 | %12
w: hur- ries by With|flow of lul- la-|by: * * * *|* Till|life a-|wakes a-|
 (c2 =B2) B2 | c3"^dim." c cc | AA!>(! G2 G2 | G6-!>)! | G2 z2 z2 | z2 z2!p! E2- | %18
w: down * the|dale Sweet mu- sic|of the nigh- tin-|gale.||Stay|
"^rall."!>(! E2 D2 F2!>)! | E4!pp!"^a tempo" c2- |!<(! c6 | c4 (!>!_e2!<)! |"^cresc." d4) d2 | %23
w: * with us,|stay! Ah!||* Stay,|* O|
!f! d6- |!>(! d4 z2!>)! | z2!p! d2 _d2 | c4!pp!"^rall." B2 |!>(! c2 (G2 B2)!>)! | !fermata!A6 || %29
w: stay!||peace- ful|night, O|with us *|stay!|
!pp! A2 | AA A3 A | GG G2 G2 |!<(! F3 F!<)! ^FG |!>(! cc!>)! c4 |!p!"^cresc.""^molto" d6 | %35
w: O|mys- tic night! in|wood- land shade, Thou|know'st a fai- ry-|haunt- ed glade.|Where|
 .^c/ z/ .=B/ z/ .c/ z/!>(! .B/ z/ .c/ z/ .B/ z/!>)! | %36
w: laugh- ing elves, with ti- ny|
 .^c/ z/!p! .=B/ z/ .=c/ z/ .B/ z/ .c/ z/ .B/ z/ | .c/ z/ .=B/ z/ .c/ z/!pp! .B/ z/ .c/ z/ .B/ z/ | %38
w: feet, Go trip- ping through the|mea- dow sweet, go trip- ping|
 .c/ z/ .=B/ z/ .c/ z/ z .B/ z/ z | .c/ z/ z z2!f! !>!c2 | !>!d4 c2 | c4 c2 |!>(! (c2 =B2) B2!>)! | %43
w: through the mea- dow|sweet: Till|in the|si- lent|sky * a-|
 c3!p! c c=B | AA G2 G2 | G6- | G2 z2 z2 | z2 z2!p! E2- |"^rall."!>(! E2 D2 F2!>)! | E4!pp! c2- | %50
w: far A- gain shines|forth the morn- ing|star.||Stay|* with us,|stay! Ah|
"^a tempo" c6 |!<(! c4!<)! (!>!_e2 |"^cresc." d4 d2 |!f! d6- |!>(! d4 z2!>)! | z2!p! d2 d2 | %56
w: |* Stay,|* O|stay!||peace- ful|
 c4!pp! B2 | c2 G2 B2) | A3!ppp! =B BB | c z"^rall." (!courtesy!_B2 A2) | G4 B2 | !fermata!A6 || %62
w: night! O|with us *|stay! O peace- ful|night! Stay *|with us,|stay!|
V:5
!pp! F,2 | F,F, F,3 F, | E,E, E,2 E,2 | D,3 D, B,,B,, | C,C, C,2 F,2 |[M:3/4] B,B, F,2 F,2 | %6
w: O|peace- ful night! so|calm and still! The|moon- light sleeps on|vale and hill; And|soft the brook- let|
!<(! G,G, D,2!<)! D,2 | E,E, E,2 E,2 |!>(! (A,,6!>)! | A,,2) z2!f! !>!A,2 | %10
w: hur- ries by With|flow of lul- la-|by:|* Till|
 (!>!!courtesy!=G,2 F,2) E,2 | F,4 F,2 | G,4 ^G,2 | A,3"^dim." E, E,E, | F,F,!>(! G,2 G,,2 | %15
w: life * a-|wakes a-|down the|dale Sweet mu- sic|of the nigh- tin-|
 C,4!>)!!p! C,2 | C,2 C,4 | C,6- |"^rall."!>(! C,6!>)! | C,4!pp!"^a tempo" C,2 | %20
w: gale. O|peace- ful|night!||* O|
 G,^F, G,2!<(! B,2 | A,^G,!<)! A,2 (!>!A,2 |"^cresc." D,4) C2 |!f! (B,A,CB,DC |!>(! B,4) z2!>)! | %25
w: peace- ful night! O|dream of day! Stay,|* O|stay! * * * * *||
 z2!p! G,2 G,2 | A,4!pp!"^rall." D,2 |!>(! C,2 C,4!>)! | !fermata![F,,F,]6 ||!pp! F,2 | %30
w: peace- ful|night, O|with us|stay!|O|
 F,F, F,3 F, | E,E, E,2 E,2 |!<(! D,3 D,!<)! B,,B,, |!>(! C,C,!>)! C,4 | %34
w: mys- tic night! in|wood- land shade, Thou|know'st a fai- ry-|haunt- ed glade.|
!p!"^cresc.""^molto" =B,,6 | .A,,/ z/ .E,/ z/ .A,/ z/!>(! .E,/ z/ .A,/ z/ .E,/ z/!>)! | %36
w: Where|laugh- ing elves, with ti- ny|
 .A,/ z/!p! .E,/ z/ .A,/ z/ .E,/ z/ .A,/ z/ .E,/ z/ | %37
w: feet, Go trip- ping through the|
 .A,/ z/ .E,/ z/ .A,/ z/!pp! .E,/ z/ .A,/ z/ .E,/ z/ | .A,/ z/ .E,/ z/ .A,/ z/ z .E,/ z/ z | %39
w: mea- dow sweet, go trip- ping|through the mea- dow|
 .A,,/ z/ z z2!f! !>!A,2 | (!>!!courtesy!=G,2 F,2) E,2 | F,4 F,2 |!>(! G,4 ^G,2!>)! | %43
w: sweet: Till|in * the|si- lent|sky a-|
 A,3!p! E, E,E, | F,F, G,2 G,,2 | C,4!p! C,2 | C,2 C,4 | C,6- |"^rall."!>(! C,6!>)! | C,4!pp! C,2 | %50
w: far A- gain shines|forth the morn- ing|star. O|mys- tic|night!||* O|
"^a tempo" G,^F, G,2 B,2 |!<(! A,^G, A,2!<)! !>!A,2 |"^cresc." D,4 C2 |!f! (B,A,CB,DC | %54
w: peace- ful night! O|dream of day! Stay,|* O|stay! * * * * *|
!>(! B,4) z2!>)! | z2!p! G,2 G,2 | A,4!pp! D,2 | C,2 C,4 | D,3!ppp! D, D,D, | C, z"^rall." C,4- | %60
w: |peace- ful|night! O|with us|stay! O peace- ful|night! Stay,|
 C,6 | !fermata!F,,6 || %62
w: |stay!|

